src/assets/PlusCircle.svg

<svg viewBox="0 0 24 24" fill="none" xmlns="http://www.w3.org/2000/svg">
<path fill-rule="evenodd" clip-rule="evenodd" d="M12 24C18.6274 24 24 18.6274 24 12C24 5.37258 18.6274 0 12 0C5.37258 0 0 5.37258 0 12C0 18.6274 5.37258 24 12 24ZM11.63 17C11.2158 17 10.88 16.6642 10.88 16.25V13.87C10.88 13.4558 10.5442 13.12 10.13 13.12H7.75C7.33579 13.12 7 12.7842 7 12.37V11.61C7 11.1958 7.33579 10.86 7.75 10.86H10.13C10.5442 10.86 10.88 10.5242 10.88 10.11V7.75C10.88 7.33579 11.2158 7 11.63 7H12.39C12.8042 7 13.14 7.33579 13.14 7.75V10.11C13.14 10.5242 13.4758 10.86 13.89 10.86H16.25C16.6642 10.86 17 11.1958 17 11.61V12.37C17 12.7842 16.6642 13.12 16.25 13.12H13.89C13.4758 13.12 13.14 13.4558 13.14 13.87V16.25C13.14 16.6642 12.8042 17 12.39 17H11.63Z" fill="currentColor"/>
</svg>

<svg xmlns="http://www.w3.org/2000/svg" fill="none" viewBox="0 0 24 24"><path fill="currentColor" fill-rule="evenodd" d="M12 24c6.627 0 12-5.373 12-12S18.627 0 12 0 0 5.373 0 12s5.373 12 12 12m-.37-7a.75.75 0 0 1-.75-.75v-2.38a.75.75 0 0 0-.75-.75H7.75a.75.75 0 0 1-.75-.75v-.76a.75.75 0 0 1 .75-.75h2.38a.75.75 0 0 0 .75-.75V7.75a.75.75 0 0 1 .75-.75h.76a.75.75 0 0 1 .75.75v2.36c0 .414.336.75.75.75h2.36a.75.75 0 0 1 .75.75v.76a.75.75 0 0 1-.75.75h-2.36a.75.75 0 0 0-.75.75v2.38a.75.75 0 0 1-.75.75z" clip-rule="evenodd"/></svg>
